!!!COM: Music21
!!!OTL: Jota para Xesús
!!!OMV: pezas_jotas_jota-para-xesus_jota-para-xesus-partitura.musicxml
**kern
*part1
*staff1
*I"Bagpipes
*I'Bag
*clefG^2
*k[b-e-a-]
*E-:
*M3/4
=1
!LO:TX:a:t=Prestissimo
*MM220
!LO:TX:a:t=[quarter]=220
4r
8cccL
8bbnJ
8bb-XL
8aa-J
=||
4gg
.
8ggL
8aa-J
8ggL
8ee-J
=
4cc
8cccL
8bbnJ
8bb-XL
8aa-J
=
4gg
.
8ggL
8aa-J
8ggL
8ffJ
=
4dd
8ggL
8aa-J
8ggL
8ffJ
=
4dd
.
8ggL
8bnJ
8ggL
8ffJ
!!linebreak:original
=
4dd
.
16ddLL
16ddJ
8ffJ
16ddLL
16ddJ
8ffJ
=
8bb-L
8aa-J
8ggL
8ffJ
8ee-L
8ddJ
=
4cc
.
.
8cccL
8bbnJ
8bb-XL
8aa-J
=
4gg
8ccL
8ee-J
8ccL
8ee-J
=
4gg
8cccL
8bbnJ
8bb-XL
8bbnJ
=
4aa-
.
8ddL
8ffJ
8ddL
8ffJ
!!linebreak:original
=
4aa-
8aa-L
8cccJ
8bb-L
8aa-J
!!linebreak:original
=
8ggL
8ee-J
8aa-L
8ggJ
8aa-L
8ggJ
=
8ffL
8ddJ
8cccL
8aa-J
8ffL
8ddJ
=
8ggL
8aa-J
8ggL
8ffJ
8ee-L
8ddJ
=
4cc
.
8cccL
8bbnJ
8bb-XL
8aa-J
=||
4gg
.
8ggL
8aa-J
8ggL
8ee-J
=
4cc
8cccL
8bbnJ
8bb-XL
8aa-J
!!linebreak:original
=
4gg
.
8ggL
8aa-J
8ggL
8ffJ
=
4dd
8ggL
8aa-J
8ggL
8ffJ
=
4dd
.
8ggL
8bnJ
8ggL
8ffJ
!!linebreak:original
=
4dd
.
16ddLL
16ddJ
8ffJ
16ddLL
16ddJ
8ffJ
=
8bb-L
8aa-J
8ggL
8ffJ
8ee-L
8ddJ
=
4cc
.
.
8cccL
8bbnJ
8bb-XL
8aa-J
=
4gg
8ccL
8ee-J
8ccL
8ee-J
=
4gg
8cccL
8bbnJ
8bb-XL
8bbnJ
=
4aa-
.
8ddL
8ffJ
8ddL
8ffJ
!!pagebreak:original
=
4aa-
8aa-L
8cccJ
8bb-L
8aa-J
!!linebreak:original
=
8ggL
8ee-J
8aa-L
8ggJ
8aa-L
8ggJ
=
8ffL
8ddJ
8cccL
8aa-J
8ffL
8ddJ
=
8ggL
8aa-J
8ggL
8ffJ
8ee-L
8ddJ
=||
8ccL
8cccJ
8ffL
8cccJ
8ggL
8cccJ
!!linebreak:original
=||
*k[]
*C:
8aaL
8ffJ
8ddL
8aaJ
8aaL
8bbJ
=
8ggL
8eeJ
8ccL
8ggJ
8ggL
8aaJ
=
8ffL
8ddJ
8bL
8ffJ
8ggL
8aaJ
=
4ee
4ff
4gg
=
8aaL
8ffJ
8ddL
8aaJ
8aaL
8bbJ
=
8ggL
8eeJ
8ccL
8ggJ
8ggL
8aaJ
=
8ffL
8ddJ
8bL
8ffJ
8eeL
8ddJ
!!linebreak:original
=
8ccL
8cccJ
8ffL
8cccJ
8ggL
8cccJ
!!linebreak:original
=||
8aaL
8ffJ
8ddL
8aaJ
8aaL
8bbJ
=
8ggL
8eeJ
8ccL
8ggJ
8ggL
8aaJ
=
8ffL
8ddJ
8bL
8ffJ
8ggL
8aaJ
=
4ee
4ff
4gg
=
8aaL
8ffJ
8ddL
8aaJ
8aaL
8bbJ
=
8ggL
8eeJ
8ccL
8ggJ
8ggL
8aaJ
=
8ffL
8ddJ
8bL
8ffJ
8eeL
8ddJ
!!linebreak:original
=
8ccL
8ccJ
8cccL
8eeJ
8cccL
8eeJ
=||
*M5/4
8ddL
8ee-X
8een
8ff
8gg
8gg#XJ
8aaL
8bb-X
8bbn
8cccJ
=||
*M7/4
8eeL
8ee
8ccc
8ee
8ccc
8ee
8cc
8dd
8ee
8ff
8gg
8aa
8bb
8cccJ
!!linebreak:original
=
8ddL
8dd
8bb
8dd
8bb
8dd
8b
8cc
8dd
8ee
8ff
8gg
8aa
8bbJ
=
8ddL
8dd
8bb
8dd
8bb
8dd
8b
8cc
8dd
8ee
8ff
8gg
8aa
8bbJ
!!pagebreak:original
=
8eeL
8ee
8ccc
8ee
8ccc
8ee
8cc
8dd
8ee
8ff
8gg
8aa
8bb
8cccJ
=||
*M7/4
8eeL
8ee
8ccc
8ee
8ccc
8ee
8cc
8dd
8ee
8ff
8gg
8aa
8bb
8cccJ
!!linebreak:original
=
8ddL
8dd
8bb
8dd
8bb
8dd
8b
8cc
8dd
8ee
8ff
8gg
8aa
8bbJ
=
8ddL
8dd
8bb
8dd
8bb
8dd
8b
8cc
8dd
8ee
8ff
8gg
8aa
8bbJ
=
8eeL
8ccc
8ee
8ee
8ccc
8ff
8ccc
8ee
8ee
8ee
8ccc
8bb
8bb-X
8gg#XJ
!!linebreak:original
=||
*M3/4
8ccL
8ccJ
8eeL
8ccJ
8ggL
8eeJ
=
16ccc
8.r
2r
==
*-
!!!system-decoration: s1,s2
